X:1
T:Christus factus est
T:Christus factus est
T:Johann Ernst Eberlin
T:© 2008 Paul R Marchesano May be freely copied for nonprofit use
T:© 2008 Paul R Marchesano May be freely copied for nonprofit use
T:© 2008 Paul R Marchesano May be freely copied for nonprofit use
T:© 2008 Paul R Marchesano May be freely copied for nonprofit use
C:Johann Ernst Eberlin
Z:© 2008 Paul R Marchesano May be freely copied for nonprofit use
%%score [ 1 2 3 4 ]
L:1/8
Q:1/4=60
M:4/4
K:Gmin
V:1 treble nm="Soprano" snm="S"
V:2 treble nm="Alto" snm="A"
V:3 treble-8 nm="Tenor" snm="T"
V:4 bass nm="Bass" snm="B"
V:1
 G4 G2 G2- | G2 ^F2 G2 z G | G4 ^F2 x2 | z8 | z2 D2 c4- | c2 BA B3 B | A2 F4 G_A | _A8- | %8
w: Chri- stus fac-|* tus est pro|no- bis||o- be-|* * * * di-|ens us- que ad|mor-|
 A2 _GF G4 | F2 B4 _AG | _A4 G2 c2- | c2 B=A B4 | A2 d4 B2 | G8- | G2 F2 =E4 || %15
w: |tem us- que ad|mor- tem us-|* que ad mor-|tem mor- tem|au-|* tem cru-|
[M:3/2][Q:1/4=230][Q:1/4=230][Q:1/4=230][Q:1/4=230] D4 d4 d4 | c8 d4 | B12 | A4 A4 A4 | B12- | %20
w: cis. Prop- ter|quod et|De-|us ex- al-|ta-|
 B4 A2 G2 c4- | c4 B2 A2 d4- | d4 c2 B2 e4- | e4 d8 | d12 | c4 f8- | f4 e8- | e4 d8 | c4 c8 | %29
w: |||* vit|il-|lum ex-|* al-|* ta-|vit il-|
 B8 B4 | B8 B4 | B8 B4 | B12 | A4 c4 c4 | c8 c4 | B12 | A4 A8 | G4 B4 B4 | B12 | A4 A8 | G12 |] %41
w: lum et|de- dit|il- li|no-|men, quod est|su- per|o-|mne no-|men, su- per|o-|mne no-|men.|
V:2
 D4 G,2 E2- | E2 D2 DG, D2- | D2 A,2 D2 z2 | z2 D2 A4- | A2 G4 F2 | F2 z F G3 G | F2 D4 EF | F8- | %8
w: Chri- stus fac-|* tus est pro no-|* * bis|o- be-|* * di-|ens o- be- di-|ens us- que ad|mor-|
 F2 ED E4 | D2 z2 =E2 FE | F4 =E2 z2 | ^F2 GF G4 | ^F2 z2 z4 | z2 D4 =E2 | =E2 D4 ^C2 || %15
w: |tem us- que ad|mor- tem|us- que ad mor-|tem|mor- tem|au- tem cru-|
[M:3/2] D4 D4 =E4 | ^F8 F4 | G12 | ^F8 z4 | z4 ^F4 F4 | G8 E4 | C8 F4 | D8 G4 | F8 F4 | G12 | %25
w: cis. Prop- ter|quod et|De-|us|ex- al-|ta- *|||* vit|il-|
 A4 A4 B4 | G8 G4 | G4 G4 F4 | G4 F8 | F8 z4 | F4 F4 F4 | G8 G4 | G12 | F8 z4 | z4 ^F4 F4 | %35
w: lum ex- al-|ta- vit|ex- al- ta-|vit il-|lum|et de- dit|il- li|no-|men,|quod est|
 G6 G2 G4 | G4 G4 ^F4 | G4 G4 G4 | G8 G4- | G4 G4 ^F4 | G12 |] %41
w: su- per o-|mne no- *|men, su- per|o- mne|_ no- *|men.|
V:3
 B4 B4 | A3 A B2 z B | G4 A2 z2 | z4 z2 D2 | B6 A2 | d4 _d3 d | c2 z2 z4 | z2 c4 B_A | B6 c2 | %9
w: Chri- stus|fac- tus est pro|no- bis|o-|be- *|* * di-|ens|us- que ad|mor- *|
 F2 z2 c2 c2- | cd d2 G2 z2 | d2 d3 =e e2 | A2 z2 z4 | z2 B4 B2 | A2 A2 A4 ||[M:3/2] A4 z4 z4 | %16
w: tem us- que|_ ad mor- tem|us- que ad mor-|tem|mor- tem|au- tem cru-|cis.|
 z4 A4 A4 | G8 d4 | d4 d4 z4 | z4 d4 B4 | G12 | A12 | B12 | A8 B4 | B12 | A4 d8- | d4 c8- | c4 B8 | %28
w: Prop- ter|quod et|De- us|ex- al-|ta-|||* vit|il-|lum ex-|* al-|* ta-|
 B4 B4 A4 | B8 z4 | d4 d4 d4 | d8 d4 | d12 | c8 z4 | z4 d4 d4 | d6 d2 G4 | e4 d8 | d4 d4 d4 | %38
w: vit il- *|lum|et de- dit|il- li|no-|men,|quod est|su- per o-|mne no-|men, su- per|
 G8 e4- | e4 d8 | d12 |] %41
w: o- mne|_ no-|men.|
V:4
 G,2 F,2 E,3 D, | C,2 D,2 B,,2 z G,, | E,4 D,2 D,2 | G,6 ^F,2 | G,2 G,2 E,2 F,2 | %5
w: Chri- stus fac- *|* tus est pro|no- bis o-|be- di-|ens o- be- *|
 B,A,G,F, =E,3 E, | F,2 z2 z4 | z2 F,4 D,C, | B,,6 A,,2 | B,,2 z2 C,2 C,2- | C,=B,, B,,2 C,2 z2 | %11
w: * * * * * di-|ens|us- que ad|mor- *|tem us- que|_ ad mor- tem|
 D,2 D,3 ^C, C,2 | D,2 z2 z4 | z2 G,4 =E,2 | ^C,2 D,2 A,,4 ||[M:3/2] D,4 z4 z4 | z4 D,4 D,4 | %17
w: us- que ad mor-|tem|mor- tem|au- tem cru-|cis.|Prop- ter|
 G,8 G,,4 | D,4 D,4 z4 | z4 D,4 D,4 | E,8 D,2 C,2 | F,8 E,2 D,2 | G,8 F,2 E,2 | F,8 F,4 | =E,12 | %25
w: quod et|De- us|ex- al-|ta- * *|||* vit|il-|
 F,4 D,4 B,,4 | C,2 B,,2 C,2 D,2 E,2 F,2 | G,2 F,2 G,2 A,2 B,4 | E,4 F,8 | B,,8 z4 | B,4 B,4 A,4 | %31
w: lum ex- al-|ta- * * * * *||vit il-|lum|et de- dit|
 G,8 F,4 | =E,12 | F,8 z4 | z4 D,4 D,4 | G,6 F,2 E,4 | C,4 D,8 | G,,4 G,4 F,4 | E,8 C,4- | %39
w: il- li|no-|men,|quod est|su- per o-|mne no-|men, su- per|o- mne|
 C,4 D,8 | G,,12 |] %41
w: _ no-|men.|

